icon-themes/breeze_svg/cmd/lc_insertfieldctrl.svg

<svg viewBox="0 0 24 24" xmlns="http://www.w3.org/2000/svg"><path d="m4 4v1h16v-1zm0 3v1h16v-1zm0 3v1h16v-1zm0 3v1h16v-1zm0 3v1h8v-1zm15 0v1h1v-1zm-15 3v1h16v-1z" fill="#4d4d4d"/><path d="m13 15v3h5v-3z" fill="#1d99f3"/></svg>

<svg xmlns="http://www.w3.org/2000/svg" viewBox="0 0 24 24">
 <path 
     style="fill:#4d4d4d" 
     d="M 4 4 L 4 5 L 20 5 L 20 4 L 4 4 z M 4 7 L 4 8 L 20 8 L 20 7 L 4 7 z M 4 10 L 4 11 L 20 11 L 20 10 L 4 10 z M 4 13 L 4 14 L 20 14 L 20 13 L 4 13 z M 4 16 L 4 17 L 12 17 L 12 16 L 4 16 z M 19 16 L 19 17 L 20 17 L 20 16 L 19 16 z M 4 19 L 4 20 L 20 20 L 20 19 L 4 19 z "
     />
 <path 
     style="fill:#1d99f3" 
     d="M 13 15 L 13 18 L 18 18 L 18 15 L 13 15 z "
     />
 </svg>
